P1
384
64
111111111111111111111111111111111111111111111111111111111111111111111111111111111111111111111111111111111111111111111111111111111111111111111111111111111111111111111111111111111111111111111111111111111111111111111111111111111111111111111111111111111111111111111111111111111111111111111111111111111111111111111111111111111111111111111111111111111111111111111111111111111111111111111111
100000000000000000000000000000000000000000000000000000000000000000000000000000000000000000000000000000000000000000000000000000000000000000000000000000000000000000000000000000000000000000000000000000000000000000000000000000000000000000000000000000000000000000000000000000000000000000000000000000000000000000000000000000000000000000000000000000000000000000000000000000000000000111111001
100000000000000000000000000000000000000000000000000000000000000000000000000000000000000000000000000000000000000000000000000000000000000000000000000000000000000000000000000000000000000000000000000000000000000000000000000000000000000000000000000000000000000000000000000000000000000000000000000000000000000000000000000000000000000000000000000000000000000000000000000000000111111000000001
100000000000000000000000000000000000000000000000000000000000000000000000000000000000000000000000000000000000000000000000000000000000000000000000000000000000000000000000000000000000000000000000000000000000000000000000000000000000000000000000000000000000000000000000000000000000000000000000000000000000000000000000000000000000000000000000000000000000000000000000000111111000000000000001
100000000000000000000000000000000000000000000000000000000000000000000000000000000000000000000000000000000000000000000000000000000000000000000000000000000000000000000000000000000000000000000000000000000000000000000000000000000000000000000000000000000000000000000000000000000000000000000000000000000000000000000000000000000000000000000000000000000000000000000111111000000000000000000001
100000000000000000000000000000000000000000000000000000000000000000000000000000000000000000000000000000000000000000000000000000000000000000000000000000000000000000000000000000000000000000000000000000000000000000000000000000000000000000000000000000000000000000000000000000000000000000000000000000000000000000000000000000000000000000000000000000000000000111111000000000000000000000000001
100000000000000000000000000000000000000000000000000000000000000000000000000000000000000000000000000000000000000000000000000000000000000000000000000000000000000000000000000000000000000000000000000000000000000000000000000000000000000000000000000000000000000000000000000000000000000000000000000000000000000000000000000000000000000000000000000000000111111000000000000000000000000000000001
100000000000000000000000000000000000000000000000000000000000000000000000000000000000000000000000000000000000000000000000000000000000000000000000000000000000000000000000000000000000000000000000000000000000000000000000000000000000000000000000000000000000000000000000000000000000000000000000000000000000000000000000000000000000000000000000000111111000000000000000000000000000000000000001
100000000001100000011000000000000000001100110000000000000000000000000000011000000110011000000110011000001110000000000000000000000011000000000000000000000000000000000001100000000000000000000000000000000000000000000000000000000000000000000000000000000000000000000000000000000000000000000000000000000000000000000000000000000000000000000111111000000000000000000000000000000000000000000001
100000000001100000011000000000000000001100110000000000000000000000000000011100001110011000000110011000011100000000000000000000000011000000000000011000000000000000000001100000000000000000000000000000000000000000000000000000000000000000000000000000000000000000000000000000000000000000000000000000000000000000000000000000000000000000000000000000000000000000000000000000000000000000000000
100000000001100000011000000000000000001100110000000000000000000000000000001100001100011000000110011000111000000000000000000000000000000000000000011000000000000000000001100000000000000000000000000000000000000000000000000000000000000000000000000000000000000000000000000000000000000000000000000000000000000000000000000000000000000000000000000000000000000000000000000000000000000000000000
100001100001100000011000111110111100001100110000111101011000011000000000000110011000011000000110011001110000000000110111000011011011001101111000111100001111000011011001100000000000000000000000000000000000000000100010100010000000100010001000000000001000000000011100100010000000100010001000000000001000001000000000100010011100100000111110000000111110111110001000001000000000000000000000
100001100001111111111001111111111110001100110001111111011000011000000000000110011000011111111110011011100000000000111111100011111011001111111100111100011111100011111001100000000000000000000000000000000000000000100010100010000000100010011000000000010100000000100010100010000000100010011000000000010100011000000000100010100010100000001000000000000010000010010100010100000000000000000000
100000000001111111111001100011000011001100110011100111001100110000000000000011110000011111111110011111000000000000111001110011100011001110001100011000110000110011100001100000000000000000000000000000000000000000100010100010000000100010101000000000100010000000100000100010000000100010101000000000100010101000000000100010100010100000001000000000000100000100100010100010000000000000000000
100000100001100000011000000111111111001100110011001111001100110000000000000011110000011000000110011111100000000000110000110011000011001100001100011000111111110011000001000000000000000000000000000000000000000000100010100010111110100010001000000000100010000000100000100010111110100010001000000000100010001000000000100010100010100000001000111110000100000100100010100010110100100010000000
100000100001100000011000111111111111001100110011011011001100110000000000000001100000011000000110011001110000000000110000110011000011001100001100011000111111110011000001000000000000000000000000000000000000000000111110010100000000111110001000000000100010000000011100010100000000010100001000000000100010001000000000010100100010100000001000000000001000001000100010100010101010100010000000
100000100001100000011001110011000000001100110011110011000111100000000000000001100000011000000110011000111000000000110000110011000011001100001100011000110000000011000001000000000000000000000000000000000000000000100010010100000000100010001000000000100010000000000010010100000000010100001000000000100010001000000000010100100010100000001000000000001000001000100010100010101010100010000000
100001100001100000011001100111100111001100110011100111000111100000000000000001100000011000000110011000011100000000111001110011000011001100001100011000111001110011000000000000000000000000000000000000000000000000100010010100111110100010001000000000100010000000000010010100111110010100001000000000100010001000000000010100100010100000001000111110010000010000100010100010101010010100000000
100001100001100000011001111111111110001100110011111110000011000001100000000001100000011000000110011000001110000000111111100011000011001100001100011100011111100011000001100000000000000000000000000000000000000000100010001000000000100010001000001000010100001100100010001000000000001000001000001000010100001000001100001000100010100000001000000000010000010000010100010100101010010100001100
100001100001100000011000111100111100001100110010111100000011000001100000000001100000011000000110011000000111000000110111000011000011001100001100001100001111000011000001100000000000000000000000000000000000000000100010001000000000100010111110011100001000001000011100001000000000001000111110011100001000111110001000001000011100111110001000000000010000010000001000001000100010001000001000
100001100000000000000000000000000000000000000000000000000000000000100000000000000000000000000000000000000000000000110000000000000000000000000000000000000000000000000000000000000000000000000000000000000000000000000000000000000000000000000000001000000000010000000000000000000000000000000000001000000000000000010000000000000000000000000000000000000000000000000000000000000000000000010000
100001100000000000000000000000000000000000000000000000000000000000100000000000000000000000000000000000000000000000110000000000000000000000000000000000000000000000000000000000000000000000000000000000000000000000000000000000000000000000000000000000000000000000000000000000000000000000000000000000000000000000000000000000000000000000000000000000000000000000000000000000000000000000000000
100001100000000000000000000000000000000000000000000000000000000001000000000000000000000000000000000000000000000000110000000000000000000000000000000000000000000000000000000000000000000000000000000000000000000000000000000000000000000000000000000000011111100000000000000000000000000000000000000000000000000000000000000000000000000000000000000000000000000000000000000000000000000000000001
100000000000000000000000000000000000000000000000000000000000000000000000000000000000000000000000000000000000000000110000000000000000000000000000000000000000000000000000000000000000000000000000000000000000000000000000000000000000000000000000011111100000000000000000000000000000000000000000000000000000000000000000000000000000000000000000000000000000000000000000000000000000000000000001
100000000000000000000000000000000000000000000000000000000000000000000000000000000000000000000000000000000000000000000000000000000000000000000000000000000000000000000000000000000000000000000000000000000000000000000000000000000000000000011111100000000000000000000000000000000000000000000000000000000000000000000000000000000000000000000000000000000000000000000000000000000000000000000001
100000000000000000000000000000000000000000000000000000000000000000000000000000000000000000000000000000000000000000000000000000000000000000000000000000000000000000000000000000000000000000000000000000000000000000000000000000000000011111100000000000000000000000000000000000000000000000000000000000000000000000000000000000000000000000000000000000000000000000000000000000000000000000000001
100000000000000000000000000000000000000000000000000000000000000000000000000000000000000000000000000000000000000000000000000000000000000000000000000000000000000000000000000000000000000000000000000000000000000000000000000000011111100000000000000000000000000000000000000000000000000000000000000000000000000000000000000000000000000000000000000000000000000000000000000000000000000000000001
100000000000000000000000000000000000000000000000000000000000000000000000000000000000000000000000000000000000000000000000000000000000000000000000000000000000000000000000000000000000000000000000000000000000000000000000011111100000000000000000000000000000000000000000000000000000000000000000000000000000000000000000000000000000000000000000000000000000000000000000000000000000000000000001
100011000000110011000000110011000001110000000111000001110011111110000111111100000000001111000001111000000000000000000000000000000000000000000000000000000000000000000000000000000000000000000000000000000000000000011111100000000000000000000000000000000000000000000000000000000000000000000000000000000000000000000000000000000000000000000000000000000000000000000000000000000000000000000001
100011100001110011000000110011000011100000000111000001110011111111000111111110000000011111100011111100000000000000000000000000000000000000000000000000000000000000000000000000000000000000000000000000000000011111100000000000000000000000000000000000000000000000000000000000000000000000000000000000000000000000000000000000000000000000000000000000000000000000000000000000000000000000000001
100001100001100011000000110011000111000000000111000001110011000011100110000111000000111001110111001110000000000000000000000000000000000000000000000000000000000000000000000000000000000000000000000000011111100000000000000000000000000000000000000000000000000000000000000000000000000000000000000000000000000000000000000000000000000000000000000000000000000000000000000000000000000000000001
100000110011000011000000110011001110000000000111100011110011000001100110000011000000110000110110000110000000000000000000000000000000000000000000000000000000000000000000000000000000000000000000011111100000000000000000000000000000000000000000000000000000000000000000000000000000000000000000000000000000000000000000000000000000000000000000000000000000000000000000000000000000000000000001
100000110011000011111111110011011100000000000111100011110011000011100110000011000000000001110110000110000000000000000000000000000000000000000000000000000000000000000000000000000000000000111111100000000000000000000000000000000000000000000000000000000000000000000000000000000000000000000000000000000000000000000000000000000000000000000000000000000000000000000000000000000000000000000001
100000011110000011111111110011111000000000000110100010110011111111000110000111000000000111100000001110000000000000000000000000000000000000000000000000000000000000000000000000000000111111000000000000000000000000000000000000000000000000000000000000000000000000000000000000000000000000000000000000000000000000000000000000000000000000000000000000000000000000000000000000000000000000000001
100000011110000011000000110011111100000000000110110110110011111111000111111110000000000111100000011100000000000000000000000000000000000000000000000000000000000000000000000000111111000000000000000000000000000000000000000000000000000000000000000000000000000000000000000000000000000000000000000000000000000000000000000000000000000000000000000000000000000000000000000000000000000000000001
100000001100000011000000110011001110000111100110110110110011000011100111111100011110000001110000111000000000000000000000000000000000000000000000000000000000000000000000111111000000000000000000000000000000000000000000000000000000000000000000000000000000000000000000000000000000000000000000000000000000000000000000000000000000000000000000000000000000000000000000000000000000000000000001
100000001100000011000000110011000111000111100110010100110011000001100110000000011110110000110001110000000000000000000000000000000000000000000000000000000000000000111111000000000000000000000000000000000000000000000000000000000000000000000000000000000000000000000000000000000000000000000000000000000000000000000000000000000000000000000000000000000000000000000000000000000000000000000001
100000001100000011000000110011000011100000000110011100110011000011100110000000000000111001110011100000000000000000000000000000000000000000000000000000000000111111000000000000000000000000000000000000000000000000000000000000000000000000000000000000000000000000000000000000000000000000000000000000000000000000000000000000000000000000000000000000000000000000000000000000000000000000000001
100000001100000011000000110011000001110000000110011100110011111111000110000000000000011111100111111110000000000000000000000000000000000000000000000000111111000000000000000000000000000000000000000000000000000000000000000000000000000000000000000000000000000000000000000000000000000000000000000000000000000000000000000000000000000000000000000000000000000000000000000000000000000000000001
100000001100000011000000110011000000111000000110001000110011111110000110000000000000001111000111111110000000000000000000000000000000000000000000111111000000000000000000000000000000000000000000000000000000000000000000000000000000000000000000000000000000000000000000000000000000000000000000000000000000000000000000000000000000000000000000000000000000000000000000000000000000000000000001
100000000000000000000000000000000000000000000000000000000000000000000000000000000000000000000000000000000000000000000000000000000000000000111111000000000000000000000000000000000000000000000000000000000000000000000000000000000000000000000000000000000000000000000000000000000000000000000000000000000000000000000000000000000000000000000000000000000000000000000000000000000000000000000001
100000000000000000000000000000000000000000000000000000000000000000000000000000000000000000000000000000000000000000000000000000000000111111000000000000000000000000000000000000000000000000000000000000000000000000000000000000000000000000000000000000000000000000000000000000000000000000000000000000000000000000000000000000000000000000000000000000000000000000000000000000000000000000000001
100000000000000000000000000000000000000000000000000000000000000000000000000000000000000000000000000000000000000000000000000001111111000000000000000000000000000000000000000000000000000000000000000000000000000000000011111000111111111000000000000111100000001111000000000000011111000011111111100000000000011110000000111100000000000000111100001110000000000000000000000000000001111000000001
100000000000000000000000000000000000000000000000000000000000000000000000000000000000000000000000000000000000000000000001111110000000000000000000000000000000000000000000000000000000000000000000000000000000000000001111111100111111111000000000011111111000111111110000000000111111100011111111100000000001111111100011111111000000000011111110001110000000000000000000000000000111111100000001
100000000000000000000000000000000000000000000000000000000000000000000000000000000000000000000000000000000000000001111110000000000000000000000000000000000000000000000000000000000000000000000000000000000000000000001100001110111000000000000000011000011000110000110000000001110001110011100000000000000001100001100011000011000000000111000011001110000000000000000000000000001110000110000001
100000000000000000000000000000000000000000000000000000000000000000000000000000000000000000000000000000000001111110000000000000000000000000000000000000000000000000000000000000000000000000000000000000000000000000011100001110111000000000000000111000011101110000111000000000000001110011100000000000000011100001110111000011100000000111000011001110000000000000000000000000001110000110000001
100000000000000000000000000000000000000000000000000000000000000000000000000000000000000000000000000001111110000000000000000000000000000000000000000000000000000000000000000000000000000000000000000000000000000000000000001110111000000000011100111000011101110000111000111000000001110011100000000001110011100001110111000011100011100111000011101110111100000011100001111100001110000111000001
100000000000000000000000000000000000000000000000000000000000000000000000000000000000000000000001111110000000000000000000000000000000000000000000000000000000000000000000000000000000000000000000000000000000000000000000001110111111110000011100111000011101110000111000111000001111100011111111000001110011100001110111000011100011100111000011101111111110000011100011111110001110000111000001
100000000000000000000000000000000000000000000000000000000000000000000000000000000000000001111110000000000000000000000000000000000000000000000000000000000000000000000000000000000000000000000000000000000000000000000000011100111111111000011100111000011101110000111000111000001111100011111111100001110011100001110111000011100011100111100111101110000111000011100111000111001111001111000001
100000000000000000000000000000000000000000000000000000000000000000000000000000000001111110000000000000000000000000000000000000000000000000000000000000000000000000000000000000000000000000000000000000000000000000000000111100111000011000000000111000011101110000111000000000000001110011100001100000000011100001110111000011100000000011111111101110000111000000000111000111000111111111000001
100000000000000000000000000000000000000000000000000000000000000000000000000001111110000000000000000000000000000000000000000000000000000000000000000000000000000000000000000000000000000000000000000000000000000000000001111000000000011100000000111000011101110000111000000000000000111000000001110000000011100001110111000011100000000000110011101110000111000000000111111111000001100111000001
100000000000000000000000000000000000000000000000000000000000000000000001111110000000000000000000000000000000000000000000000000000000000000000000000000000000000000000000000000000000000000000000000000000000000000000011110000000000011100000000111000011101110000111000000000000000111000000001110000000011100001110111000011100000000000000011001110000111000000000111111111000000000110000001
100000000000000000000000000000000000000000000000000000000000000001111110000000000000000000000000000000000000000000000000000000000000000000000000000000000000000000000000000000000000000000000000000000000000000000000111000000111000011100000000111000011101110000111000000001110000111011100001110000000011100001110111000011100000000111000011001110000111000000000111000000001110000110000001
100000000000000000000000000000000000000000000000000000000011111110000000000000000000000000000000000000000000000000000000000000000000000000000000000000000000000000000000000000000000000000000000000000000000000000001110000000111000111000011100011000011000110000110000111001111001110011100011100001110001100001100011000011000011100011000111001110000110000011100111000111000110001110000001
100000000000000000000000000000000000000000000000000011111100000000000000000000000000000000000000000000000000000000000000000000000000000000000000000000000000000000000000000000000000000000000000000000000000000000011111111110011111110000011100011111111000111111110000111000111111100001111111000001110001111111100011111111000011100011111110001111111110000011100011111110000111111100000001
100000000000000000000000000000000000000000000011111100000000000000000000000000000000000000000000000000000000000000000000000000000000000000000000000000000000000000000000000000000000000000000000000000000000000000011111111110001111100000011100000111100000001111000000111000011111000000111110000001110000011110000000111100000011100001111100001110111100000011100001111100000011111000000001
100000000000000000000000000000000000000011111100000000000000000000000000000000000000000000000000000000000000000000000000000000000000000000000000000000000000000000000000000000000000000000000000000000000000000000000000000000000000000000000000000000000000000000000000000000000000000000000000000000000000000000000000000000000000000000000000000000000000000000000000000000000000000000000001
100000000000000000000000000000000011111100000000000000000000000000000000000000000000000000000000000000000000000000000000000000000000000000000000000000000000000000000000000000000000000000000000000000000000000000000000000000000000000000000000000000000000000000000000000000000000000000000000000000000000000000000000000000000000000000000000000000000000000000000000000000000000000000000001
100000000000000000000000000011111100000000000000000000000000000000000000000000000000000000000000000000000000000000000000000000000000000000000000000000000000000000000000000000000000000000000000000000000000000000000000000000000000000000000000000000000000000000000000000000000000000000000000000000000000000000000000000000000000000000000000000000000000000000000000000000000000000000000001
100000000000000000000011111100000000000000000000000000000000000000000000000000000000000000000000000000000000000000000000000000000000000000000000000000000000000000000000000000000000000000000000000000000000000000000000000000000000000000000000000000000000000000000000000000000000000000000000000000000000000000000000000000000000000000000000000000000000000000000000000000000000000000000001
100000000000000011111100000000000000000000000000000000000000000000000000000000000000000000000000000000000000000000000000000000000000000000000000000000000000000000000000000000000000000000000000000000000000000000000000000000000000000000000000000000000000000000000000000000000000000000000000000000000000000000000000000000000000000000000000000000000000000000000000000000000000000000000001
100000000011111100000000000000000000000000000000000000000000000000000000000000000000000000000000000000000000000000000000000000000000000000000000000000000000000000000000000000000000000000000000000000000000000000000000000000000000000000000000000000000000000000000000000000000000000000000000000000000000000000000000000000000000000000000000000000000000000000000000000000000000000000000001
100011111100000000000000000000000000000000000000000000000000000000000000000000000000000000000000000000000000000000000000000000000000000000000000000000000000000000000000000000000000000000000000000000000000000000000000000000000000000000000000000000000000000000000000000000000000000000000000000000000000000000000000000000000000000000000000000000000000000000000000000000000000000000000001
111111111111111111111111111111111111111111111111111111111111111111111111111111111111111111111111111111111111111111111111111111111111111111111111111111111111111111111111111111111111111111111111111111111111111111111111111111111111111111111111111111111111111111111111111111111111111111111111111111111111111111111111111111111111111111111111111111111111111111111111111111111111111111111111
